X:468
T:Loch Derculich
R:Reel
B:The Athole Collection
M:C|
L:1/8
K:E Minor
B,|EFGA ~B2 Ad|FDAD dDAF|EFGA ~B2 Ag|fdAF E/E/E E:|
|:f|gfef gfeg|feda fdaf|1 gfef gfeg|fdAF E/E/E E:|2 gfeb gefd|AFdF E/E/E E||

